docs/img/phone.svg

<svg width="16" height="16" viewBox="0 0 16 16" fill="none" xmlns="http://www.w3.org/2000/svg">
<path d="M8.77419 0C8.48914 0 8.25806 0.219525 8.25806 0.490323C8.25806 0.76112 8.48914 0.980645 8.77419 0.980645C12.1948 0.980645 14.9677 3.61494 14.9677 6.86452C14.9677 7.13531 15.1988 7.35484 15.4839 7.35484C15.7689 7.35484 16 7.13531 16 6.86452C16 3.07335 12.7649 0 8.77419 0Z" fill="#E4E5EA"/>
<path d="M2.1673 1.59966C2.45986 1.4568 2.97514 1.3844 3.27048 1.64579C3.63965 1.97253 4.20861 2.54529 4.59951 3.04502C4.9904 3.54475 5.53764 4.30588 5.61582 4.47502C5.694 4.64416 5.78086 5.24384 5.38997 5.60518C5.07726 5.89425 4.669 6.15104 4.50395 6.2433C4.35049 6.37143 4.09916 6.74764 4.32154 7.22738C4.59951 7.82706 5.19887 9.00335 6.23256 9.87979C7.26625 10.7562 8.36074 11.2175 9.04698 11.3636C9.09061 11.3636 9.14667 11.3735 9.21164 11.385C9.44413 11.426 9.79062 11.4872 10.0894 11.1868C10.3951 10.8793 10.6742 10.5564 10.7756 10.4333C10.9348 10.2693 11.3975 9.9905 11.9743 10.1873C12.6953 10.4333 13.5205 10.9715 13.894 11.2252C14.1928 11.4282 14.8582 11.9095 15.1536 12.1247C15.3331 12.2554 15.6331 12.6445 15.3968 13.1549C15.1014 13.7931 13.8419 15.2 12.7127 15.2C12.2957 15.2 8.26519 14.116 4.70374 11.0561C2.42881 9.10153 0.47054 5.71025 0.134663 4.56728C0.00726174 4.29563 -0.143304 3.62625 0.273647 3.12191C0.690597 2.61756 1.15968 2.09169 2.1673 1.59966Z" fill="#E4E5EA"/>
<path d="M8.77419 3.92258C8.48914 3.92258 8.25806 4.14211 8.25806 4.4129C8.25806 4.6837 8.48914 4.90323 8.77419 4.90323C9.91439 4.90323 10.8387 5.78133 10.8387 6.86452C10.8387 7.13531 11.0698 7.35484 11.3548 7.35484C11.6399 7.35484 11.871 7.13531 11.871 6.86452C11.871 5.23973 10.4845 3.92258 8.77419 3.92258Z" fill="#E4E5EA"/>
<path d="M8.25806 2.45161C8.25806 2.18082 8.48914 1.96129 8.77419 1.96129C11.6247 1.96129 13.9355 4.15654 13.9355 6.86452C13.9355 7.13531 13.7044 7.35484 13.4194 7.35484C13.1343 7.35484 12.9032 7.13531 12.9032 6.86452C12.9032 4.69813 11.0546 2.94194 8.77419 2.94194C8.48914 2.94194 8.25806 2.72241 8.25806 2.45161Z" fill="#E4E5EA"/>
</svg>

<svg width="16" height="16" fill="none" xmlns="http://www.w3.org/2000/svg"><path d="M8.774 0a.504.504 0 00-.516.49c0 .271.231.49.516.49 3.42 0 6.194 2.635 6.194 5.885 0 .27.23.49.516.49.285 0 .516-.22.516-.49C16 3.073 12.765 0 8.774 0zM2.167 1.6c.293-.143.808-.216 1.103.046.37.327.939.9 1.33 1.399.39.5.938 1.26 1.016 1.43.078.17.165.769-.226 1.13a5.23 5.23 0 01-.886.638.825.825 0 00-.182.984c.278.6.877 1.776 1.91 2.653 1.034.876 2.129 1.337 2.815 1.484.044 0 .1.01.165.021.232.041.579.102.877-.198.306-.308.585-.63.687-.754a1.182 1.182 0 011.198-.246c.721.246 1.546.785 1.92 1.038.299.203.964.684 1.26.9.18.13.48.52.243 1.03-.296.638-1.555 2.045-2.684 2.045-.417 0-4.448-1.084-8.01-4.144C2.43 9.102.472 5.71.136 4.567c-.128-.271-.278-.94.139-1.445.417-.504.886-1.03 1.893-1.522zm6.607 2.323a.504.504 0 00-.516.49c0 .27.231.49.516.49 1.14 0 2.065.878 2.065 1.962 0 .27.23.49.516.49.285 0 .516-.22.516-.49 0-1.625-1.386-2.942-3.097-2.942z" fill="#E4E5EA"/><path d="M8.258 2.452c0-.271.231-.49.516-.49 2.85 0 5.162 2.195 5.162 4.903 0 .27-.232.49-.517.49a.504.504 0 01-.516-.49c0-2.167-1.848-3.923-4.129-3.923a.504.504 0 01-.516-.49z" fill="#E4E5EA"/></svg>
